src/images/logo/lubimovka-text-logo.svg

<svg width="93" height="81" viewBox="0 0 93 81" fill="none" xmlns="http://www.w3.org/2000/svg">
  <path d="M58.6727 34.6445H55.4047C55.202 36.1786 53.8847 37.3547 52.314 37.3547V40.6274C55.6833 40.6274 58.4447 37.9939 58.6727 34.6445Z" fill="#242424"/>
  <path d="M58.6728 33.775C58.4702 30.4256 55.6835 27.7666 52.3141 27.7666V31.0393C53.9101 31.0393 55.2275 32.2409 55.4301 33.775H58.6728Z" fill="#242424"/>
  <path d="M58.6728 43.4137C58.4702 40.0643 55.6835 37.4053 52.3141 37.4053V40.6779C53.9101 40.6779 55.2275 41.8796 55.4301 43.4137H58.6728Z" fill="#242424"/>
  <path d="M58.6727 44.2832H55.4047C55.202 45.8173 53.8847 46.9934 52.314 46.9934V50.266C55.6833 50.266 58.4447 47.6326 58.6727 44.2832Z" fill="#242424"/>
  <path d="M35.3403 0C32.0216 0.204541 29.3869 3.01698 29.3869 6.41748H32.6296C32.6296 4.80672 33.8203 3.4772 35.3403 3.27266V0Z" fill="#242424"/>
  <path d="M51.4526 27.8176C48.1339 28.0477 45.4992 30.8346 45.4992 34.2351H48.7419C48.7419 32.6243 49.9326 31.3204 51.4526 31.0903V27.8176Z" fill="#242424"/>
  <path d="M36.1765 0V3.29823C37.6965 3.50277 38.8618 4.83229 38.8618 6.41748H42.1045C42.1299 3.01698 39.4952 0.230109 36.1765 0Z" fill="#242424"/>
  <path d="M52.238 8.87207V12.1703C53.758 12.3748 54.9234 13.7044 54.9234 15.2896H58.1661C58.1914 11.8635 55.5567 9.07661 52.238 8.87207Z" fill="#242424"/>
  <path d="M36.1512 22.6785C39.4699 22.4739 42.1046 19.6615 42.1046 16.261H38.8619C38.8619 17.8717 37.6712 19.2013 36.1512 19.4058V22.6785Z" fill="#242424"/>
  <path d="M35.3152 22.6529V19.3802C33.7951 19.1757 32.6298 17.8462 32.6298 16.261H29.3871C29.3617 19.6615 31.9964 22.4484 35.3152 22.6529Z" fill="#242424"/>
  <path d="M22.4203 0.460205H19.2029V22.1416H22.4203V0.460205Z" fill="#242424"/>
  <path d="M32.6299 9.63892H23.2311V12.886H32.6299V9.63892Z" fill="#242424"/>
  <path d="M58.1914 0.460205H45.4486V3.7073H58.1914V0.460205Z" fill="#242424"/>
  <path d="M42.1046 9.63892H38.8619V12.886H42.1046V9.63892Z" fill="#242424"/>
  <path d="M52.998 8.87207H49.7553V12.1192H52.998V8.87207Z" fill="#242424"/>
  <path d="M35.3152 27.6899C31.9965 27.8945 29.3618 30.7069 29.3618 34.1074H32.6045C32.6045 32.4967 33.7952 31.1671 35.3152 30.9626V27.6899Z" fill="#242424"/>
  <path d="M36.1765 27.6899V30.9882C37.6965 31.1927 38.8618 32.5222 38.8618 34.1074H42.1045C42.1045 30.7069 39.4698 27.9201 36.1765 27.6899Z" fill="#242424"/>
  <path d="M36.1512 50.4961C39.4699 50.2916 42.1046 47.4791 42.1046 44.0786H38.8619C38.8619 45.6894 37.6712 47.0189 36.1512 47.2234V50.4961Z" fill="#242424"/>
  <path d="M35.2899 50.4961V47.1979C33.7699 46.9933 32.6045 45.6638 32.6045 44.0786H29.3618C29.3618 47.4791 31.9712 50.266 35.2899 50.4961Z" fill="#242424"/>
  <path d="M42.1046 35.0276H38.8619V43.1325H42.1046V35.0276Z" fill="#242424"/>
  <path d="M48.7672 33.3403H45.5245V36.5874H48.7672V33.3403Z" fill="#242424"/>
  <path d="M48.7672 41.522H45.5245V44.7691H48.7672V41.522Z" fill="#242424"/>
  <path d="M54.0622 37.3289H45.3981V40.5759H54.0622V37.3289Z" fill="#242424"/>
  <path d="M32.6045 35.0276H29.3618V43.1325H32.6045V35.0276Z" fill="#242424"/>
  <path d="M48.6913 4.67896H45.4486V12.068H48.6913V4.67896Z" fill="#242424"/>
  <path d="M51.4526 50.3684V47.0702C49.9325 46.8656 48.7672 45.5361 48.7672 43.9509H45.5245C45.5245 47.3514 48.1338 50.1383 51.4526 50.3684Z" fill="#242424"/>
  <path d="M73.2904 34.644H70.0224C69.8197 36.1781 68.5024 37.3542 66.9317 37.3542V40.6269C70.3011 40.6269 73.0624 37.9934 73.2904 34.644Z" fill="#242424"/>
  <path d="M73.2904 43.4137C73.0878 40.0643 70.3011 37.4053 66.9317 37.4053V40.6779C68.5277 40.6779 69.8451 41.8796 70.0477 43.4137H73.2904Z" fill="#242424"/>
  <path d="M65.2087 28.1501H61.966V36.5875H65.2087V28.1501Z" fill="#242424"/>
  <path d="M65.2087 41.522H61.966V49.857H65.2087V41.522Z" fill="#242424"/>
  <path d="M68.4264 37.3289H61.8396V40.5759H68.4264V37.3289Z" fill="#242424"/>
  <path d="M81.6252 33.3403H78.3824V36.5874H81.6252V33.3403Z" fill="#242424"/>
  <path d="M91.1252 33.3403H87.8824V36.5874H91.1252V33.3403Z" fill="#242424"/>
  <path d="M91.1252 41.394H87.8824V44.6411H91.1252V41.394Z" fill="#242424"/>
  <path d="M84.3359 27.6899C81.0171 27.9201 78.3824 30.7069 78.3824 34.1074H81.6252C81.6252 32.4967 82.8158 31.1927 84.3359 30.9626V27.6899Z" fill="#242424"/>
  <path d="M85.1971 27.6899V30.9882C86.7171 31.1927 87.8825 32.5222 87.8825 34.1074H91.1252C91.1252 30.7069 88.5158 27.9201 85.1971 27.6899Z" fill="#242424"/>
  <path d="M76.1023 27.6387C72.7836 27.8432 70.1489 30.6557 70.1489 34.0561H73.3916C73.3916 32.4454 74.5823 31.1414 76.1023 30.9113V27.6387Z" fill="#242424"/>
  <path d="M76.1023 50.4961C72.7836 50.2916 70.1489 47.4791 70.1489 44.0786H73.3916C73.3916 45.6894 74.5823 47.0189 76.1023 47.2234V50.4961Z" fill="#242424"/>
  <path d="M91.1252 43.823H87.9078V49.8314H91.1252V43.823Z" fill="#242424"/>
  <path d="M81.6252 41.394H78.3824V44.6411H81.6252V41.394Z" fill="#242424"/>
  <path d="M81.6253 43.823H78.4079V49.8314H81.6253V43.823Z" fill="#242424"/>
  <path d="M91.1253 37.3289H78.3824V40.5759H91.1253V37.3289Z" fill="#242424"/>
  <path d="M6.00413 5.625H2.76141V8.87209H6.00413V5.625Z" fill="#242424"/>
  <path d="M15.5044 5.625H12.2617V8.87209H15.5044V5.625Z" fill="#242424"/>
  <path d="M32.6045 5.625H29.3618V8.87209H32.6045V5.625Z" fill="#242424"/>
  <path d="M42.1299 5.625H38.8871V8.87209H42.1299V5.625Z" fill="#242424"/>
  <path d="M32.6045 13.7043H29.3618V16.9514H32.6045V13.7043Z" fill="#242424"/>
  <path d="M42.1299 13.7043H38.8871V16.9514H42.1299V13.7043Z" fill="#242424"/>
  <path d="M52.238 22.6785C55.5567 22.4739 58.1914 19.6615 58.1914 16.261H54.9487C54.9487 17.8717 53.758 19.2013 52.238 19.4058V22.6785Z" fill="#242424"/>
  <path d="M51.3767 22.6529V19.3802C49.8567 19.1757 48.6913 17.8462 48.6913 16.261H45.4486C45.4486 19.6615 48.058 22.4484 51.3767 22.6529Z" fill="#242424"/>
  <path d="M48.6913 12.9373H45.4486V16.9514H48.6913V12.9373Z" fill="#242424"/>
  <path d="M6.00413 9.9458H2.76141V16.9513H6.00413V9.9458Z" fill="#242424"/>
  <path d="M8.71483 0C5.39612 0.230109 2.76141 3.01698 2.76141 6.41748H6.00413C6.00413 4.80672 7.19481 3.50277 8.71483 3.27266V0Z" fill="#242424"/>
  <path d="M9.57611 0V3.29823C11.0961 3.50277 12.2615 4.83229 12.2615 6.41748H15.5042C15.5042 3.01698 12.8948 0.230109 9.57611 0Z" fill="#242424"/>
  <path d="M0.0256348 22.5251C3.34435 22.3206 5.97905 19.5337 5.97905 16.1077H2.73634C2.73634 17.7184 1.54566 19.0224 0.0256348 19.2525V22.5251Z" fill="#242424"/>
  <path d="M15.5041 9.9458H12.2867V22.1416H15.5041V9.9458Z" fill="#242424"/>
  <path d="M65.133 11.2244L61.9156 15.5454V0.460449H65.133V11.2244Z" fill="#242424"/>
  <path d="M74.8104 22.1929H71.593V11.7101L74.8104 7.59375V22.1929Z" fill="#242424"/>
  <path d="M74.8105 0.0253906L61.9156 17.5392V22.7806L74.8105 5.3946V0.0253906Z" fill="#242424"/>
  <path d="M15.3777 39.1953L12.1603 43.235V38.9908L15.3777 34.6443V39.1953Z" fill="#242424"/>
  <path d="M25.6883 49.8824H22.4709V38.8883L25.6883 35.0276V49.8824Z" fill="#242424"/>
  <path d="M25.6885 27.7153L12.1603 45.2292V50.4706L25.6885 33.0845V27.7153Z" fill="#242424"/>
  <path d="M15.3775 27.7153L0 45.2292V50.4706L15.3775 33.0845V27.7153Z" fill="#242424"/>
  <path d="M70.1491 55.0728C65.513 55.3796 61.8397 59.2659 61.8397 64.0214H66.3744C66.3744 61.7971 68.0211 59.9306 70.1744 59.6494V55.0728H70.1491Z" fill="#242424"/>
  <path d="M71.3397 55.0728V59.6494C73.4677 59.9562 75.0891 61.7971 75.0891 64.0214H79.6238C79.6238 59.2659 75.9504 55.3796 71.3397 55.0728Z" fill="#242424"/>
  <path d="M83.4744 55.0728C78.8383 55.3796 75.1649 59.2659 75.1649 64.0214H79.6996C79.6996 61.7971 81.3463 59.9306 83.4997 59.6494V55.0728H83.4744Z" fill="#242424"/>
  <path d="M84.6653 55.0728V59.6494C86.7933 59.9562 88.4147 61.7971 88.4147 64.0214H92.9494C92.9494 59.2659 89.3013 55.3796 84.6653 55.0728Z" fill="#242424"/>
  <path d="M76.8371 75.5784C74.6077 74.479 66.9316 70.2859 66.5769 65.249H61.8395C62.1942 72.7659 73.9997 78.9789 76.8117 80.3595V75.5784H76.8371Z" fill="#242424"/>
  <path d="M88.2878 65.2485C87.9584 70.2854 80.257 74.4785 78.0276 75.5779V80.359C80.8397 78.9784 92.6705 72.7654 92.9998 65.2485H88.2878Z" fill="#242424"/>
</svg>

<?xml version="1.0" encoding="utf-8"?>
<!-- Generator: Adobe Illustrator 24.1.2, SVG Export Plug-In . SVG Version: 6.00 Build 0)  -->
<svg version="1.1" id="Layer_1" xmlns="http://www.w3.org/2000/svg" xmlns:xlink="http://www.w3.org/1999/xlink" x="0px" y="0px"
	 viewBox="0 0 93 81" style="enable-background:new 0 0 93 81;" xml:space="preserve">
<style type="text/css">
	.st0{fill:#242424;}
</style>
<path class="st0" d="M58.7,34.6h-3.3c-0.2,1.5-1.5,2.7-3.1,2.7v3.3C55.7,40.6,58.4,38,58.7,34.6z"/>
<path class="st0" d="M58.7,33.6c-0.2-3.3-3-6-6.4-6v3.3c1.6,0,2.9,1.2,3.1,2.7H58.7z"/>
<path class="st0" d="M58.7,43.4c-0.2-3.3-3-6-6.4-6v3.3c1.6,0,2.9,1.2,3.1,2.7H58.7z"/>
<path class="st0" d="M58.7,44.5h-3.3c-0.2,1.5-1.5,2.7-3.1,2.7v3.3C55.7,50.5,58.4,47.9,58.7,44.5z"/>
<path class="st0" d="M35.3,0c-3.3,0.2-6,3-6,6.4h3.2c0-1.6,1.2-2.9,2.7-3.1V0z"/>
<path class="st0" d="M36.2,0v3.3c1.5,0.2,2.7,1.5,2.7,3.1h3.2C42.1,3,39.5,0.2,36.2,0z"/>
<path class="st0" d="M52.2,8.9v3.3c1.5,0.2,2.7,1.5,2.7,3.1h3.2C58.2,11.9,55.6,9.1,52.2,8.9z"/>
<path class="st0" d="M36.2,22.7c3.3-0.2,6-3,6-6.4h-3.2c0,1.6-1.2,2.9-2.7,3.1V22.7z"/>
<path class="st0" d="M35.3,22.7v-3.3c-1.5-0.2-2.7-1.5-2.7-3.1h-3.2C29.4,19.7,32,22.4,35.3,22.7z"/>
<path class="st0" d="M22.4,0.5h-3.2v21.7h3.2V0.5z"/>
<path class="st0" d="M32.6,9.6h-9.4v3.2h9.4V9.6z"/>
<path class="st0" d="M58.2,0.5H45.4v3.2h12.7V0.5z"/>
<path class="st0" d="M42.1,9.6h-3.2v3.2h3.2V9.6z"/>
<path class="st0" d="M53,8.9h-3.2v3.2H53V8.9z"/>
<path class="st0" d="M35.3,27.7c-3.3,0.2-6,3-6,6.4h3.2c0-1.6,1.2-2.9,2.7-3.1V27.7z"/>
<path class="st0" d="M36.2,27.7V31c1.5,0.2,2.7,1.5,2.7,3.1h3.2C42.1,30.7,39.5,27.9,36.2,27.7z"/>
<path class="st0" d="M36.2,50.5c3.3-0.2,6-3,6-6.4h-3.2c0,1.6-1.2,2.9-2.7,3.1V50.5z"/>
<path class="st0" d="M35.3,50.5v-3.3c-1.5-0.2-2.7-1.5-2.7-3.1h-3.2C29.4,47.5,32,50.3,35.3,50.5z"/>
<path class="st0" d="M42.1,35h-3.2v8.1h3.2V35z"/>
<path class="st0" d="M45.5,34.1v2.5h3.2v-2.5c0-1.6,1.2-2.9,2.7-3.1v-3.3C48.1,27.9,45.5,30.7,45.5,34.1z"/>
<path class="st0" d="M54.1,37.3h-8.6v3.2h8.6V37.3z"/>
<path class="st0" d="M32.6,35h-3.2v8.1h3.2V35z"/>
<path class="st0" d="M48.7,4.7h-3.2v7.4h3.2V4.7z"/>
<path class="st0" d="M48.6,44.1v-2.4h-3.2v2.4c0,3.4,2.6,6.2,5.9,6.4v-3.3C49.8,47,48.6,45.7,48.6,44.1z"/>
<path class="st0" d="M73.4,34.6h-3.3c-0.2,1.5-1.5,2.7-3.1,2.7v3.3C70.4,40.6,73.2,37.9,73.4,34.6z"/>
<path class="st0" d="M73.4,43.3c-0.2-3.3-3-6-6.4-6v3.3c1.6,0,2.9,1.2,3.1,2.7H73.4z"/>
<path class="st0" d="M65.2,27.6H62v8.9h3.2V27.6z"/>
<path class="st0" d="M65.2,41.5H62v9h3.2V41.5z"/>
<path class="st0" d="M68.4,37.3H62v3.3h6.5V37.3z"/>
<path class="st0" d="M81.6,33.3h-3.2v3.2h3.2V33.3z"/>
<path class="st0" d="M91.1,33.3h-3.2v3.2h3.2V33.3z"/>
<path class="st0" d="M84.3,27.7c-3.3,0.2-6,3-6,6.4h3.2c0-1.6,1.2-2.9,2.7-3.1V27.7z"/>
<path class="st0" d="M85.2,27.7V31c1.5,0.2,2.7,1.5,2.7,3.1h3.2C91.1,30.7,88.5,27.9,85.2,27.7z"/>
<path class="st0" d="M76.1,27.6c-3.3,0.2-6,3-6,6.4h3.2c0-1.6,1.2-2.9,2.7-3.1V27.6z"/>
<path class="st0" d="M76.1,50.5c-3.3-0.2-6-3-6-6.4h3.2c0,1.6,1.2,2.9,2.7,3.1V50.5z"/>
<g>
	<rect x="87.9" y="41.4" class="st0" width="3.2" height="9.1"/>
	<rect x="78.4" y="41.4" class="st0" width="3.2" height="9.1"/>
</g>
<path class="st0" d="M91.1,37.3H78.4v3.2h12.7V37.3z"/>
<path class="st0" d="M6,5.6H2.8v3.2H6V5.6z"/>
<path class="st0" d="M15.5,5.6h-3.2v3.2h3.2V5.6z"/>
<path class="st0" d="M32.6,5.6h-3.2v3.2h3.2V5.6z"/>
<path class="st0" d="M42.1,5.6h-3.2v3.2h3.2V5.6z"/>
<path class="st0" d="M32.6,13.7h-3.2V17h3.2V13.7z"/>
<path class="st0" d="M42.1,13.7h-3.2V17h3.2V13.7z"/>
<path class="st0" d="M52.2,22.7c3.3-0.2,6-3,6-6.4h-3.2c0,1.6-1.2,2.9-2.7,3.1V22.7z"/>
<path class="st0" d="M51.4,22.7v-3.3c-1.5-0.2-2.7-1.5-2.7-3.1h-3.2C45.4,19.7,48.1,22.4,51.4,22.7z"/>
<path class="st0" d="M48.7,12.9h-3.2v4h3.2V12.9z"/>
<path class="st0" d="M6,9.9H2.8v7H6V9.9z"/>
<path class="st0" d="M8.7,0c-3.3,0.2-6,3-6,6.4H6c0-1.6,1.2-2.9,2.7-3.1V0z"/>
<path class="st0" d="M9.6,0v3.3c1.5,0.2,2.7,1.5,2.7,3.1h3.2C15.5,3,12.9,0.2,9.6,0z"/>
<path class="st0" d="M0,22.5c3.3-0.2,6-3,6-6.4H2.7c0,1.6-1.2,2.9-2.7,3.1V22.5z"/>
<path class="st0" d="M15.5,9.9h-3.2v12.2h3.2V9.9z"/>
<path class="st0" d="M65.1,11.2l-3.2,4.3V0.5h3.2V11.2z"/>
<path class="st0" d="M74.8,22.2h-3.2V11.7l3.2-4.1V22.2z"/>
<path class="st0" d="M74.8,0L61.9,17.5v5.2L74.8,5.4V0z"/>
<path class="st0" d="M15.4,39.2l-3.2,4V39l3.2-4.3V39.2z"/>
<path class="st0" d="M25.7,50.5h-3.2V39l3.2-4V50.5z"/>
<path class="st0" d="M25.7,27.7L12.2,45.2v5.2l13.5-17.4V27.7z"/>
<path class="st0" d="M15.4,27.7L0,45.2v5.2l15.4-17.4V27.7z"/>
<path class="st0" d="M70.1,55.1c-4.6,0.3-8.3,4.2-8.3,8.9h4.5c0-2.2,1.6-4.1,3.8-4.4L70.1,55.1L70.1,55.1z"/>
<path class="st0" d="M71.3,55.1v4.6c2.1,0.3,3.7,2.1,3.7,4.4h4.5C79.6,59.3,76,55.4,71.3,55.1z"/>
<path class="st0" d="M83.5,55.1c-4.6,0.3-8.3,4.2-8.3,8.9h4.5c0-2.2,1.6-4.1,3.8-4.4L83.5,55.1L83.5,55.1z"/>
<path class="st0" d="M84.7,55.1v4.6c2.1,0.3,3.7,2.1,3.7,4.4h4.5C92.9,59.3,89.3,55.4,84.7,55.1z"/>
<path class="st0" d="M76.8,75.6c-2.2-1.1-9.9-5.3-10.3-10.3h-4.7c0.4,7.5,12.2,13.7,15,15.1L76.8,75.6L76.8,75.6z"/>
<path class="st0" d="M88.3,65.2c-0.3,5-8,9.2-10.3,10.3v4.8c2.8-1.4,14.6-7.6,15-15.1H88.3z"/>
</svg>
